;Generated from petite_atache_bras_robot_1_(x2).stl 0ce76de9f4c6e345b08e36e3e4b24a7ce6ba850a
;Generated with Cura_SteamEngine 14.12.1
;Sliced at: Mon 01-05-2017 09:30:27
;Basic settings: Layer height: 0.1 Walls: 0.7 Fill: 20
;Print time: ?print_time?
;Filament used: ?filament_amount?m ?filament_weight?g
;Filament cost: ?filament_cost?
G28 ; Home extruder
;;repetier host printer setting zaxis feed rate mm/min
G1 Z5 F600
G1 Z0 F600
M106 S165 ; Turn on fan
G90 ; Absolute positioning
M82 ; Extruder in absolute mode
; Activate all used extruder
M104 T0 S200
;;M104 T1 S?print_temperature2?
G92 E0 ; Reset extruder position
; Wait for all used extruders to reach temperature
M109 T0 S200
;;M109 T1 S?print_temperature2?
T0
;;?IF_EXT1?T1
M83
G1 E10 F100
M82
G92 E0 ; Reset extruder position
M117 Vertex is printing
G1 F1000 Z5

;Layer count: 73
;LAYER:0
M106 S255
G0 F9000 X64.633 Y84.126 Z0.200
;TYPE:SKIRT
G1 F900 X75.948 Y84.126 E0.30954
G1 X78.882 Y86.675 E0.41586
G1 X80.096 Y87.537 E0.45659
G1 X81.321 Y88.244 E0.49529
G1 X83.240 Y89.137 E0.55319
G1 X84.587 Y89.617 E0.59231
G1 X85.542 Y89.887 E0.61946
G1 X86.493 Y90.096 E0.64609
G1 X88.490 Y90.370 E0.70124
G1 X90.516 Y90.427 E0.75668
G1 X92.484 Y90.266 E0.81070
G1 X93.413 Y90.115 E0.83645
G1 X95.437 Y89.614 E0.89349
G1 X96.306 Y89.320 E0.91858
G1 X97.680 Y88.743 E0.95935
G1 X99.078 Y88.036 E1.00221
G1 X99.826 Y87.587 E1.02608
G1 X101.516 Y86.376 E1.08295
G1 X104.023 Y84.126 E1.17511
G1 X115.377 Y84.126 E1.48571
G1 X115.541 Y89.155 E1.62336
G1 X116.233 Y111.497 E2.23485
G1 X116.257 Y112.203 E2.25418
G1 X116.348 Y115.874 E2.35463
G1 X63.638 Y115.874 E3.79659
G1 X63.796 Y110.493 E3.94386
G1 X64.480 Y88.465 E4.54676
G1 X64.516 Y87.414 E4.57553
G1 X64.633 Y84.126 E4.66553
G1 F4200 E0.66553
G0 F9000 X68.178 Y88.587
;TYPE:WALL-INNER
G1 F4200 E4.66553
G1 F900 X68.204 Y87.826 E4.68636
G1 X74.565 Y87.826 E4.86038
G1 X76.595 Y89.590 E4.93395
G1 X78.098 Y90.656 E4.98436
G1 X79.612 Y91.530 E5.03218
G1 X81.742 Y92.522 E5.09646
G1 X83.461 Y93.144 E5.14647
G1 X84.642 Y93.477 E5.18004
G1 X85.844 Y93.742 E5.21371
G1 X88.185 Y94.063 E5.27835
G1 X90.546 Y94.130 E5.34296
G1 X90.632 Y94.130 E5.34532
G1 X92.938 Y93.941 E5.40861
G1 X94.155 Y93.743 E5.44234
G1 X96.471 Y93.169 E5.50762
G1 X97.627 Y92.778 E5.54100
G1 X99.229 Y92.106 E5.58852
G1 X100.862 Y91.281 E5.63857
G1 X101.868 Y90.677 E5.67067
G1 X103.781 Y89.305 E5.73508
G1 X105.441 Y87.826 E5.79590
G1 X111.795 Y87.826 E5.96972
G1 X112.554 Y112.174 E6.63612
G1 X67.450 Y112.174 E7.87000
G1 X68.178 Y88.587 E8.51557
G0 F9000 X67.864 Y87.531
;TYPE:WALL-OUTER
G1 F900 X67.866 Y87.476 E8.51707
G1 X74.695 Y87.476 E8.70389
G1 X76.812 Y89.315 E8.78060
G1 X78.287 Y90.361 E8.83007
G1 X79.773 Y91.219 E8.87701
G1 X81.890 Y92.205 E8.94090
G1 X83.568 Y92.811 E8.98971
G1 X84.727 Y93.138 E9.02265
G1 X85.905 Y93.397 E9.05565
G1 X88.214 Y93.714 E9.11940
G1 X90.551 Y93.780 E9.18336
G1 X90.617 Y93.780 E9.18517
G1 X92.895 Y93.593 E9.24770
G1 X94.085 Y93.400 E9.28067
G1 X96.373 Y92.833 E9.34516
G1 X97.503 Y92.451 E9.37779
G1 X99.082 Y91.788 E9.42464
G1 X100.693 Y90.974 E9.47402
G1 X101.675 Y90.384 E9.50536
G1 X103.574 Y89.023 E9.56927
G1 X103.618 Y88.990 E9.57078
G1 X105.306 Y87.476 E9.63281
G1 X112.134 Y87.476 E9.81960
G1 X112.908 Y112.299 E10.49900
G1 X112.914 Y112.524 E10.50515
G1 X67.089 Y112.524 E11.75876
G1 X67.864 Y87.531 E12.44281
G0 F9000 X68.448 Y88.000
;TYPE:FILL
G1 F900 X92.446 Y111.997 E13.37122
G0 F9000 X91.951 Y111.997
G1 F900 X68.360 Y88.407 E14.28389
G0 F9000 X68.346 Y88.887
G1 F900 X91.456 Y111.997 E15.17797
G0 F9000 X90.961 Y111.997
G1 F900 X68.331 Y89.367 E16.05347
G0 F9000 X68.316 Y89.847
G1 F900 X90.466 Y111.997 E16.91041
G0 F9000 X89.971 Y111.997
G1 F900 X68.301 Y90.327 E17.74878
G0 F9000 X68.286 Y90.808
G1 F900 X89.476 Y111.997 E18.56855
G0 F9000 X88.981 Y111.997
G1 F900 X68.271 Y91.288 E19.36976
G0 F9000 X68.257 Y91.768
G1 F900 X88.486 Y111.997 E20.15238
G0 F9000 X87.991 Y111.997
G1 F900 X68.242 Y92.248 E20.91642
G0 F9000 X68.227 Y92.728
G1 F900 X87.496 Y111.997 E21.66190
G0 F9000 X87.001 Y111.997
G1 F900 X68.212 Y93.208 E22.38881
G0 F9000 X68.197 Y93.688
G1 F900 X86.506 Y111.997 E23.09714
G0 F9000 X86.011 Y111.997
G1 F900 X68.182 Y94.168 E23.78691
G0 F9000 X68.167 Y94.649
G1 F900 X85.516 Y111.997 E24.45809
G0 F9000 X85.021 Y111.997
G1 F900 X68.153 Y95.129 E25.11067
G0 F9000 X68.138 Y95.609
G1 F900 X84.526 Y111.997 E25.74469
G0 F9000 X84.031 Y111.997
G1 F900 X68.123 Y96.089 E26.36014
G0 F9000 X68.108 Y96.569
G1 F900 X83.536 Y111.997 E26.95701
G0 F9000 X83.041 Y111.997
G1 F900 X68.093 Y97.049 E27.53532
G0 F9000 X68.078 Y97.529
G1 F900 X82.546 Y111.997 E28.09506
G0 F9000 X82.051 Y111.997
G1 F900 X68.063 Y98.009 E28.63622
G0 F9000 X68.049 Y98.490
G1 F900 X81.556 Y111.997 E29.15878
G0 F9000 X81.062 Y111.997
G1 F900 X68.034 Y98.970 E29.66279
G0 F9000 X68.019 Y99.450
G1 F900 X80.567 Y111.997 E30.14822
G0 F9000 X80.072 Y111.997
G1 F900 X68.004 Y99.930 E30.61509
G0 F9000 X68.943 Y88.000
G1 F900 X92.941 Y111.997 E31.54350
G0 F9000 X93.436 Y111.997
G1 F900 X69.438 Y88.000 E32.47191
G0 F9000 X69.933 Y88.000
G1 F900 X93.931 Y111.997 E33.40033
G0 F9000 X94.426 Y111.997
G1 F900 X70.428 Y88.000 E34.32874
G0 F9000 X70.923 Y88.000
G1 F900 X94.921 Y111.997 E35.25715
G0 F9000 X95.416 Y111.997
G1 F900 X71.418 Y88.000 E36.18556
G0 F9000 X71.913 Y88.000
G1 F900 X95.911 Y111.997 E37.11398
G0 F9000 X96.406 Y111.997
G1 F900 X72.408 Y88.000 E38.04239
G0 F9000 X72.903 Y88.000
G1 F900 X96.901 Y111.997 E38.97080
G0 F9000 X97.396 Y111.997
G1 F900 X73.398 Y88.000 E39.89921
G0 F9000 X73.893 Y88.000
G1 F900 X97.891 Y111.997 E40.82763
G0 F9000 X98.386 Y111.997
G1 F900 X74.388 Y88.000 E41.75604
G0 F9000 X76.909 Y90.026
G1 F900 X98.881 Y111.997 E42.60607
G0 F9000 X99.376 Y111.997
G1 F900 X78.422 Y91.044 E43.41671
G0 F9000 X79.581 Y91.708
G1 F900 X99.871 Y111.997 E44.20167
G0 F9000 X100.366 Y111.997
G1 F900 X80.507 Y92.139 E44.96996
G0 F9000 X81.434 Y92.571
G1 F900 X100.861 Y111.997 E45.72153
G0 F9000 X101.355 Y111.997
G1 F900 X82.249 Y92.891 E46.46070
G0 F9000 X83.025 Y93.172
G1 F900 X101.850 Y111.997 E47.18900
G0 F9000 X102.345 Y111.997
G1 F900 X83.757 Y93.409 E47.90813
G0 F9000 X84.445 Y93.602
G1 F900 X102.840 Y111.997 E48.61979
G0 F9000 X103.335 Y111.997
G1 F900 X85.093 Y93.755 E49.32553
G0 F9000 X85.728 Y93.895
G1 F900 X103.830 Y111.997 E50.02586
G0 F9000 X104.325 Y111.997
G1 F900 X86.310 Y93.982 E50.72282
G0 F9000 X86.883 Y94.060
G1 F900 X104.820 Y111.997 E51.41677
G0 F9000 X105.315 Y111.997
G1 F900 X87.457 Y94.139 E52.10766
G0 F9000 X88.031 Y94.218
G1 F900 X105.810 Y111.997 E52.79549
G0 F9000 X106.305 Y111.997
G1 F900 X88.556 Y94.248 E53.48216
G0 F9000 X89.065 Y94.262
G1 F900 X106.800 Y111.997 E54.16829
G0 F9000 X107.295 Y111.997
G1 F900 X89.574 Y94.277 E54.85386
G0 F9000 X90.083 Y94.291
G1 F900 X107.790 Y111.997 E55.53888
G0 F9000 X108.285 Y111.997
G1 F900 X90.592 Y94.304 E56.22339
G0 F9000 X91.053 Y94.270
G1 F900 X108.780 Y111.997 E56.90921
G0 F9000 X109.275 Y111.997
G1 F900 X91.510 Y94.233 E57.59648
G0 F9000 X91.968 Y94.195
G1 F900 X109.770 Y111.997 E58.28520
G0 F9000 X110.265 Y111.997
G1 F900 X92.425 Y94.158 E58.97537
G0 F9000 X92.883 Y94.120
G1 F900 X110.760 Y111.997 E59.66700
G0 F9000 X111.255 Y111.997
G1 F900 X93.314 Y94.057 E60.36108
G0 F9000 X93.740 Y93.987
G1 F900 X111.750 Y111.997 E61.05785
G0 F9000 X112.245 Y111.997
G1 F900 X94.166 Y93.919 E61.75726
G0 F9000 X94.564 Y93.822
G1 F900 X112.360 Y111.618 E62.44575
G0 F9000 X112.344 Y111.106
G1 F900 X94.961 Y93.724 E63.11825
G0 F9000 X95.358 Y93.625
G1 F900 X112.328 Y110.596 E63.77480
G0 F9000 X112.312 Y110.085
G1 F900 X95.754 Y93.527 E64.41539
G0 F9000 X96.151 Y93.429
G1 F900 X112.297 Y109.574 E65.04003
G0 F9000 X112.280 Y109.063
G1 F900 X96.546 Y93.328 E65.64876
G0 F9000 X96.916 Y93.203
G1 F900 X112.265 Y108.552 E66.24258
G0 F9000 X112.248 Y108.041
G1 F900 X97.285 Y93.078 E66.82147
G0 F9000 X97.655 Y92.953
G1 F900 X112.233 Y107.531 E67.38546
G0 F9000 X112.217 Y107.019
G1 F900 X98.006 Y92.809 E67.93523
G0 F9000 X98.355 Y92.662
G1 F900 X112.200 Y106.508 E68.47089
G0 F9000 X112.185 Y105.998
G1 F900 X98.703 Y92.516 E68.99248
G0 F9000 X99.052 Y92.370
G1 F900 X112.169 Y105.486 E69.49993
G0 F9000 X112.153 Y104.976
G1 F900 X99.395 Y92.218 E69.99351
G0 F9000 X99.723 Y92.051
G1 F900 X112.137 Y104.465 E70.47378
G0 F9000 X112.121 Y103.954
G1 F900 X100.052 Y91.885 E70.94070
G0 F9000 X100.381 Y91.719
G1 F900 X112.105 Y103.443 E71.39428
G0 F9000 X112.089 Y102.932
G1 F900 X100.710 Y91.553 E71.83451
G0 F9000 X101.033 Y91.381
G1 F900 X112.073 Y102.421 E72.26162
G0 F9000 X112.058 Y101.911
G1 F900 X101.342 Y91.195 E72.67620
G0 F9000 X101.652 Y91.010
G1 F900 X112.041 Y101.399 E73.07813
G0 F9000 X112.026 Y100.889
G1 F900 X101.961 Y90.824 E73.46752
G0 F9000 X102.249 Y90.617
G1 F900 X112.009 Y100.378 E73.84514
G0 F9000 X111.994 Y99.867
G1 F900 X102.538 Y90.411 E74.21097
G0 F9000 X102.826 Y90.204
G1 F900 X111.978 Y99.356 E74.56504
G0 F9000 X111.962 Y98.845
G1 F900 X103.115 Y89.998 E74.90731
G0 F9000 X103.403 Y89.791
G1 F900 X111.946 Y98.334 E75.23782
G0 F9000 X111.930 Y97.823
G1 F900 X103.692 Y89.585 E75.55653
G0 F9000 X103.972 Y89.370
G1 F900 X111.914 Y97.312 E75.86379
G0 F9000 X111.898 Y96.801
G1 F900 X104.233 Y89.137 E76.16032
G0 F9000 X104.495 Y88.903
G1 F900 X111.882 Y96.290 E76.44610
G0 F9000 X111.866 Y95.779
G1 F900 X104.757 Y88.670 E76.72114
G0 F9000 X105.018 Y88.437
G1 F900 X111.850 Y95.269 E76.98545
G0 F9000 X111.834 Y94.757
G1 F900 X105.280 Y88.203 E77.23901
G0 F9000 X105.572 Y88.000
G1 F900 X111.819 Y94.247 E77.48070
G0 F9000 X111.802 Y93.736
G1 F900 X106.067 Y88.000 E77.70259
G0 F9000 X106.562 Y88.000
G1 F900 X111.787 Y93.225 E77.90473
G0 F9000 X111.770 Y92.714
G1 F900 X107.057 Y88.000 E78.08709
G0 F9000 X107.552 Y88.000
G1 F900 X111.755 Y92.203 E78.24969
G0 F9000 X111.739 Y91.692
G1 F900 X108.047 Y88.000 E78.39253
G0 F9000 X108.542 Y88.000
G1 F900 X111.723 Y91.182 E78.51562
G0 F9000 X111.707 Y90.670
G1 F900 X109.037 Y88.000 E78.61891
G0 F9000 X109.532 Y88.000
G1 F900 X111.691 Y90.160 E78.70246
G0 F9000 X111.675 Y89.649
G1 F900 X110.027 Y88.000 E78.76624
G0 F9000 X110.522 Y88.000
G1 F900 X111.659 Y89.138 E78.81024
G0 F9000 X111.643 Y88.627
G1 F900 X111.017 Y88.000 E78.83448
G0 F9000 X111.512 Y88.000
G1 F900 X111.628 Y88.116 E78.83897
G0 F9000 X79.577 Y111.997
G1 F900 X67.989 Y100.409 E79.28728
G0 F9000 X67.974 Y100.889
G1 F900 X79.082 Y111.997 E79.71703
G0 F9000 X78.587 Y111.997
G1 F900 X67.959 Y101.370 E80.12818
G0 F9000 X67.944 Y101.850
G1 F900 X78.092 Y111.997 E80.52077
G0 F9000 X77.597 Y111.997
G1 F900 X67.929 Y102.330 E80.89478
G0 F9000 X67.914 Y102.810
G1 F900 X77.102 Y111.997 E81.25023
G0 F9000 X76.607 Y111.997
G1 F900 X67.899 Y103.290 E81.58710
G0 F9000 X67.885 Y103.770
G1 F900 X76.112 Y111.997 E81.90539
G0 F9000 X75.617 Y111.997
G1 F900 X67.870 Y104.250 E82.20510
G0 F9000 X67.855 Y104.730
G1 F900 X75.122 Y111.997 E82.48625
G0 F9000 X74.627 Y111.997
G1 F900 X67.840 Y105.211 E82.74880
G0 F9000 X67.825 Y105.691
G1 F900 X74.132 Y111.997 E82.99279
G0 F9000 X73.637 Y111.997
G1 F900 X67.810 Y106.171 E83.21820
G0 F9000 X67.795 Y106.651
G1 F900 X73.142 Y111.997 E83.42505
G0 F9000 X72.647 Y111.997
G1 F900 X67.781 Y107.131 E83.61330
G0 F9000 X67.766 Y107.611
G1 F900 X72.152 Y111.997 E83.78299
G0 F9000 X71.657 Y111.997
G1 F900 X67.751 Y108.091 E83.93410
G0 F9000 X67.736 Y108.572
G1 F900 X71.162 Y111.997 E84.06663
G0 F9000 X70.667 Y111.997
G1 F900 X67.721 Y109.052 E84.18058
G0 F9000 X67.706 Y109.532
G1 F900 X70.172 Y111.997 E84.27597
G0 F9000 X69.677 Y111.997
G1 F900 X67.692 Y110.012 E84.35276
G0 F9000 X67.677 Y110.492
G1 F900 X69.182 Y111.997 E84.41099
G0 F9000 X68.687 Y111.997
G1 F900 X67.662 Y110.972 E84.45065
G0 F9000 X67.647 Y111.452
G1 F900 X68.192 Y111.997 E84.47173
G0 F9000 X67.697 Y111.997
G1 F900 X67.632 Y111.932 E84.47424
;LAYER:1
G0 F9000 X67.480 Y112.174 Z0.300
;TYPE:WALL-INNER
G1 F1080 X68.181 Y89.431 E84.78548
G1 X68.236 Y87.826 E84.80744
G1 X74.565 Y87.826 E84.89401
G1 X76.567 Y89.567 E84.93030
G1 X78.091 Y90.651 E84.95588
G1 X79.555 Y91.498 E84.97902
G1 X81.724 Y92.514 E85.01178
G1 X83.424 Y93.132 E85.03652
G1 X84.623 Y93.471 E85.05356
G1 X85.840 Y93.741 E85.07062
G1 X88.168 Y94.061 E85.10276
G1 X90.528 Y94.130 E85.13505
G1 X90.652 Y94.129 E85.13675
G1 X92.913 Y93.943 E85.16778
G1 X94.148 Y93.744 E85.18489
G1 X96.470 Y93.169 E85.21761
G1 X97.633 Y92.776 E85.23440
G1 X99.206 Y92.116 E85.25774
G1 X100.862 Y91.281 E85.28310
G1 X101.849 Y90.688 E85.29885
G1 X103.761 Y89.321 E85.33100
G1 X103.844 Y89.258 E85.33243
G1 X105.441 Y87.826 E85.36177
G1 X111.765 Y87.826 E85.44827
G1 X111.855 Y90.576 E85.48590
G1 X112.521 Y112.039 E85.77962
G1 X112.524 Y112.174 E85.78147
G1 X67.480 Y112.174 E86.39759
G0 F9000 X67.119 Y112.524
;TYPE:WALL-OUTER
G1 F1080 X67.891 Y87.681 E86.73756
G1 X67.899 Y87.476 E86.74037
G1 X74.695 Y87.476 E86.83333
G1 X76.784 Y89.292 E86.87119
G1 X78.280 Y90.356 E86.89630
G1 X79.730 Y91.195 E86.91921
G1 X79.823 Y91.250 E86.92069
G1 X81.857 Y92.190 E86.95134
G1 X83.531 Y92.799 E86.97570
G1 X84.708 Y93.132 E86.99244
G1 X85.902 Y93.396 E87.00916
G1 X88.197 Y93.712 E87.04085
G1 X90.531 Y93.780 E87.07279
G1 X90.636 Y93.779 E87.07422
G1 X92.871 Y93.595 E87.10490
G1 X94.078 Y93.401 E87.12162
G1 X96.372 Y92.833 E87.15395
G1 X97.509 Y92.449 E87.17036
G1 X99.059 Y91.798 E87.19336
G1 X100.693 Y90.974 E87.21839
G1 X101.657 Y90.395 E87.23377
G1 X103.554 Y89.038 E87.26567
G1 X103.622 Y88.987 E87.26683
G1 X105.306 Y87.476 E87.29778
G1 X112.103 Y87.476 E87.39075
G1 X112.871 Y112.030 E87.72677
G1 X112.883 Y112.524 E87.73353
G1 X67.119 Y112.524 E88.35950
G0 F9000 X67.668 Y111.759
;TYPE:FILL
G1 F1320 X85.569 Y93.859 E88.70577
G0 F9000 X85.163 Y93.769
G1 F1320 X67.684 Y111.249 E89.04389
G0 F9000 X67.700 Y110.737
G1 F1320 X84.758 Y93.679 E89.37386
G0 F9000 X84.364 Y93.579
G1 F1320 X67.716 Y110.227 E89.69590
G0 F9000 X67.732 Y109.716
G1 F1320 X83.978 Y93.469 E90.01017
G0 F9000 X83.592 Y93.360
G1 F1320 X67.747 Y109.205 E90.31667
G0 F9000 X67.764 Y108.694
G1 F1320 X83.216 Y93.241 E90.61558
G0 F9000 X82.853 Y93.109
G1 F1320 X67.779 Y108.183 E90.90718
G0 F9000 X67.795 Y107.673
G1 F1320 X82.490 Y92.978 E91.19143
G0 F9000 X82.127 Y92.845
G1 F1320 X67.811 Y107.162 E91.46837
G0 F9000 X67.827 Y106.651
G1 F1320 X81.764 Y92.713 E91.73798
G0 F9000 X81.419 Y92.563
G1 F1320 X67.843 Y106.140 E92.00060
G0 F9000 X67.858 Y105.629
G1 F1320 X81.083 Y92.405 E92.25641
G0 F9000 X80.745 Y92.247
G1 F1320 X67.875 Y105.118 E92.50538
G0 F9000 X67.890 Y104.607
G1 F1320 X80.408 Y92.090 E92.74752
G0 F9000 X80.072 Y91.931
G1 F1320 X67.906 Y104.097 E92.98286
G0 F9000 X67.922 Y103.586
G1 F1320 X79.734 Y91.773 E93.21136
G0 F9000 X79.403 Y91.610
G1 F1320 X67.938 Y103.075 E93.43314
G0 F9000 X67.954 Y102.564
G1 F1320 X79.089 Y91.428 E93.64854
G0 F9000 X78.775 Y91.247
G1 F1320 X67.969 Y102.053 E93.85757
G0 F9000 X67.986 Y101.542
G1 F1320 X78.461 Y91.066 E94.06021
G0 F9000 X78.148 Y90.885
G1 F1320 X68.001 Y101.032 E94.25649
G0 F9000 X68.018 Y100.520
G1 F1320 X77.847 Y90.691 E94.44662
G0 F9000 X77.558 Y90.485
G1 F1320 X68.033 Y100.010 E94.63087
G0 F9000 X67.924 Y111.998
G1 F1320 X85.987 Y93.936 E94.98027
G0 F9000 X86.421 Y93.996
G1 F1320 X68.419 Y111.998 E95.32850
G0 F9000 X68.914 Y111.998
G1 F1320 X86.856 Y94.056 E95.67557
G0 F9000 X87.291 Y94.116
G1 F1320 X69.409 Y111.998 E96.02148
G0 F9000 X69.904 Y111.998
G1 F1320 X87.727 Y94.176 E96.36624
G0 F9000 X88.162 Y94.235
G1 F1320 X70.399 Y111.998 E96.70984
G0 F9000 X70.894 Y111.998
G1 F1320 X88.643 Y94.249 E97.05318
G0 F9000 X89.124 Y94.263
G1 F1320 X71.389 Y111.998 E97.39624
G0 F9000 X71.884 Y111.998
G1 F1320 X89.605 Y94.277 E97.73904
G0 F9000 X90.086 Y94.291
G1 F1320 X72.379 Y111.998 E98.08156
G0 F9000 X72.874 Y111.998
G1 F1320 X90.569 Y94.304 E98.42384
G0 F9000 X91.101 Y94.266
G1 F1320 X73.369 Y111.998 E98.76685
G0 F9000 X73.864 Y111.998
G1 F1320 X91.640 Y94.222 E99.11071
G0 F9000 X92.179 Y94.178
G1 F1320 X74.359 Y111.998 E99.45542
G0 F9000 X74.854 Y111.998
G1 F1320 X92.718 Y94.134 E99.80098
G0 F9000 X93.288 Y94.059
G1 F1320 X75.349 Y111.998 E100.14799
G0 F9000 X75.844 Y111.998
